X: 04084
T: SHARON'S JIG
C: Bob McQuillen 7 Feb 79
B: Bob's Note Book 04 #84
R: jig
Z: 2020 John Chambers <jc:trillian.mit.edu>
M: 6/8
L: 1/8
K: D
a \
| fdd edc | B2d AGF | GBG FAd | faf e2a |\
| fdd edc | B2d AGF | GBG FAd | edc d2 :|
|: B \
| Add dAG | FAB AFD | aba gfe | dcd e2A |\
| FAF GBG | Adf afd | afd gec | edd d2 :|
%%begintext align
%% For Sharon Pyne who, with
%% Kevin MacElroy, makes
%% such beautiful music.
%% With love to you both, Sharon.
%%endtext

%%sep 1 1 500

%%sep 1 1 500

